app/assets/images/heroicons/micro/identification.svg

<svg width="16" height="16" viewBox="0 0 16 16" fill="none" xmlns="http://www.w3.org/2000/svg">
<path fill-rule="evenodd" clip-rule="evenodd" d="M3 3C1.89543 3 1 3.89543 1 5V11C1 12.1046 1.89543 13 3 13H13C14.1046 13 15 12.1046 15 11V5C15 3.89543 14.1046 3 13 3H3ZM5.5 8C6.32843 8 7 7.32843 7 6.5C7 5.67157 6.32843 5 5.5 5C4.67157 5 4 5.67157 4 6.5C4 7.32843 4.67157 8 5.5 8ZM10 5.75C10 5.33579 10.3358 5 10.75 5H12.25C12.6642 5 13 5.33579 13 5.75C13 6.16421 12.6642 6.5 12.25 6.5H10.75C10.3358 6.5 10 6.16421 10 5.75ZM10.75 9.5C10.3358 9.5 10 9.83579 10 10.25C10 10.6642 10.3358 11 10.75 11H12.25C12.6642 11 13 10.6642 13 10.25C13 9.83579 12.6642 9.5 12.25 9.5H10.75ZM10 8C10 7.58579 10.3358 7.25 10.75 7.25H12.25C12.6642 7.25 13 7.58579 13 8C13 8.41421 12.6642 8.75 12.25 8.75H10.75C10.3358 8.75 10 8.41421 10 8ZM7.62245 11C7.96752 11 8.20548 10.6567 8.01743 10.3673C7.48252 9.5443 6.55492 9 5.50019 9C4.44546 9 3.51786 9.5443 2.98295 10.3673C2.79491 10.6567 3.03286 11 3.37794 11H7.62245Z" fill="black"/>
</svg>

<svg xmlns="http://www.w3.org/2000/svg" viewBox="0 0 16 16" fill="currentColor" aria-hidden="true" data-slot="icon">
  <path fill-rule="evenodd" d="M3 3a2 2 0 0 0-2 2v6a2 2 0 0 0 2 2h10a2 2 0 0 0 2-2V5a2 2 0 0 0-2-2H3Zm2.5 5a1.5 1.5 0 1 0 0-3 1.5 1.5 0 0 0 0 3ZM10 5.75a.75.75 0 0 1 .75-.75h1.5a.75.75 0 0 1 0 1.5h-1.5a.75.75 0 0 1-.75-.75Zm.75 3.75a.75.75 0 0 0 0 1.5h1.5a.75.75 0 0 0 0-1.5h-1.5ZM10 8a.75.75 0 0 1 .75-.75h1.5a.75.75 0 0 1 0 1.5h-1.5A.75.75 0 0 1 10 8Zm-2.378 3c.346 0 .583-.343.395-.633A2.998 2.998 0 0 0 5.5 9a2.998 2.998 0 0 0-2.517 1.367c-.188.29.05.633.395.633h4.244Z" clip-rule="evenodd"/>
</svg>
